static/img/in-field/lists-selected-dark.svg

<svg fill="none" height="57" viewBox="0 0 510 57" width="510" xmlns="http://www.w3.org/2000/svg"><path d="m1 1.4h508v54h-508z" fill="#217cbb" fill-opacity=".2"/><path d="m18.1484 37.3999v-15.7051h1.8262v14.0723h6.9717v1.6328zm13.2588-11.7734v11.7734h-1.7832v-11.7734zm-.8701-4.4043c.2936 0 .5443.0966.752.29.2148.1862.3222.4798.3222.8809 0 .3938-.1074.6875-.3222.8808-.2077.1934-.4584.2901-.752.2901-.3079 0-.5657-.0967-.7734-.2901-.2005-.1933-.3008-.487-.3008-.8808 0-.4011.1003-.6947.3008-.8809.2077-.1934.4655-.29.7734-.29zm12.5176 12.955c0 .752-.1898 1.3858-.5693 1.9014-.3724.5085-.9096.8916-1.6114 1.1494-.6946.2578-1.5254.3867-2.4922.3867-.8235 0-1.5361-.0644-2.1377-.1933-.6015-.1289-1.1279-.3115-1.5791-.5479v-1.6435c.4799.2363 1.0528.4512 1.7188.6445.666.1934 1.3463.2901 2.041.2901 1.0169 0 1.7546-.1648 2.2129-.4942s.6875-.777.6875-1.3428c0-.3222-.0931-.6051-.2793-.8486-.179-.2506-.4834-.4906-.9131-.7197-.4297-.2364-1.0241-.4942-1.7832-.7735-.7519-.2864-1.4036-.5693-1.9551-.8486-.5442-.2865-.9668-.6338-1.2675-1.042-.2937-.4082-.4405-.9381-.4405-1.5898 0-.9955.4011-1.7582 1.2031-2.2881.8093-.5371 1.8692-.8057 3.1797-.8057.709 0 1.3715.0716 1.9873.2149.6231.136 1.2032.3222 1.7403.5586l-.6016 1.4287c-.487-.2077-1.0062-.3832-1.5576-.5264s-1.1136-.2148-1.6865-.2148c-.8236 0-1.4574.136-1.9014.4082-.4368.2721-.6553.6445-.6553 1.1171 0 .3653.1003.6661.3008.9024.2077.2363.5371.4583.9883.666s1.0456.4512 1.7832.7305c.7376.2721 1.375.555 1.9121.8486.5371.2865.9489.6374 1.2354 1.0527.2936.4082.4404.9346.4404 1.5791zm6.9209 1.9766c.2936 0 .5944-.0251.9023-.0752.308-.0501.5586-.111.752-.1826v1.3857c-.2077.0931-.4977.1719-.8701.2364-.3653.0644-.7233.0966-1.0743.0966-.623 0-1.1888-.1074-1.6972-.3222-.5085-.222-.9167-.5944-1.2246-1.1172-.3008-.5228-.4512-1.2461-.4512-2.1699v-6.9825h-1.6758v-.8701l1.6865-.6982.709-2.5567h1.0742v2.7286h3.4483v1.3964h-3.4483v6.9288c0 .7376.1683 1.289.5049 1.6543.3438.3652.7985.5478 1.3643.5478zm10.5224 1.2461v-15.7051h1.8262v15.7051zm9.9288-1.2461c.2936 0 .5944-.0251.9023-.0752s.5586-.111.752-.1826v1.3857c-.2077.0931-.4978.1719-.8702.2364-.3652.0644-.7233.0966-1.0742.0966-.623 0-1.1888-.1074-1.6972-.3222-.5085-.222-.9167-.5944-1.2247-1.1172-.3007-.5228-.4511-1.2461-.4511-2.1699v-6.9825h-1.6758v-.8701l1.6865-.6982.709-2.5567h1.0742v2.7286h3.4483v1.3964h-3.4483v6.9288c0 .7376.1683 1.289.5049 1.6543.3437.3652.7985.5478 1.3643.5478zm8.8222-10.7422c1.0026 0 1.862.222 2.5781.666.7162.444 1.264 1.0671 1.6436 1.8692.3796.7949.5693 1.7259.5693 2.7929v1.1065h-8.1318c.0215 1.3822.3652 2.4349 1.0313 3.1582.666.7233 1.6041 1.085 2.8144 1.085.7448 0 1.4037-.0681 1.9766-.2041.5729-.1361 1.1673-.3366 1.7832-.6016v1.5684c-.5944.2649-1.1852.4583-1.7725.58-.5801.1218-1.2676.1826-2.0625.1826-1.1315 0-2.1198-.2291-2.9648-.6875-.8379-.4654-1.4896-1.1458-1.9551-2.041s-.6983-1.9909-.6983-3.2871c0-1.2676.2113-2.3633.6338-3.2871.4297-.931 1.0313-1.6471 1.8047-2.1484.7806-.5013 1.6973-.752 2.75-.752zm-.0215 1.461c-.9524 0-1.7115.3115-2.2773.9345-.5658.6231-.9023 1.4932-1.0098 2.6104h6.2305c-.0072-.7018-.1182-1.3177-.333-1.8477-.2077-.5371-.5264-.9524-.9561-1.2461-.4297-.3008-.9811-.4511-1.6543-.4511zm20.8755-1.461c1.296 0 2.273.3402 2.932 1.0205.659.6732.988 1.7582.988 3.2549v7.7129h-1.761v-7.627c0-.9524-.208-1.665-.623-2.1376-.409-.4799-1.017-.7198-1.8265-.7198-1.1387 0-1.9658.3295-2.4814.9883-.5157.6589-.7735 1.6292-.7735 2.9111v6.585h-1.7724v-7.627c0-.6373-.0931-1.1673-.2793-1.5898-.1791-.4225-.4512-.7376-.8164-.9453-.3581-.2149-.8129-.3223-1.3643-.3223-.7806 0-1.4072.1612-1.8799.4834-.4726.3223-.8164.8021-1.0312 1.4395-.2077.6302-.3116 1.4072-.3116 2.331v6.2305h-1.7832v-11.7734h1.4395l.2685 1.665h.0967c.2364-.4082.5336-.7519.8916-1.0312.3581-.2793.7591-.4906 1.2032-.6338.444-.1433.9166-.2149 1.4179-.2149.8952 0 1.6436.1683 2.2451.5049.6088.3294 1.0492.8343 1.3213 1.5147h.0967c.3867-.6804.9167-1.1853 1.5898-1.5147.6732-.3366 1.4109-.5049 2.2134-.5049z" fill="#fff"/><path d="m1 1.4h508v54h-508z" stroke="#019aeb" stroke-width="2"/></svg>

<svg width="510" height="57" viewBox="0 0 510 57" fill="none" xmlns="http://www.w3.org/2000/svg"><rect x="1" y="1.4" width="508" height="54" fill="#217CBB" fill-opacity=".2"/><path d="M18.1484 37.3999V21.6948H19.9746V35.7671H26.9463V37.3999H18.1484ZM31.4072 25.6265V37.3999H29.624V25.6265H31.4072ZM30.5371 21.2222C30.8307 21.2222 31.0814 21.3188 31.2891 21.5122C31.5039 21.6984 31.6113 21.992 31.6113 22.3931C31.6113 22.7869 31.5039 23.0806 31.2891 23.2739C31.0814 23.4673 30.8307 23.564 30.5371 23.564C30.2292 23.564 29.9714 23.4673 29.7637 23.2739C29.5632 23.0806 29.4629 22.7869 29.4629 22.3931C29.4629 21.992 29.5632 21.6984 29.7637 21.5122C29.9714 21.3188 30.2292 21.2222 30.5371 21.2222ZM43.0547 34.1772C43.0547 34.9292 42.8649 35.563 42.4854 36.0786C42.113 36.5871 41.5758 36.9702 40.874 37.228C40.1794 37.4858 39.3486 37.6147 38.3818 37.6147C37.5583 37.6147 36.8457 37.5503 36.2441 37.4214C35.6426 37.2925 35.1162 37.1099 34.665 36.8735V35.23C35.1449 35.4663 35.7178 35.6812 36.3838 35.8745C37.0498 36.0679 37.7301 36.1646 38.4248 36.1646C39.4417 36.1646 40.1794 35.9998 40.6377 35.6704C41.096 35.341 41.3252 34.8934 41.3252 34.3276C41.3252 34.0054 41.2321 33.7225 41.0459 33.479C40.8669 33.2284 40.5625 32.9884 40.1328 32.7593C39.7031 32.5229 39.1087 32.2651 38.3496 31.9858C37.5977 31.6994 36.946 31.4165 36.3945 31.1372C35.8503 30.8507 35.4277 30.5034 35.127 30.0952C34.8333 29.687 34.6865 29.1571 34.6865 28.5054C34.6865 27.5099 35.0876 26.7472 35.8896 26.2173C36.6989 25.6802 37.7588 25.4116 39.0693 25.4116C39.7783 25.4116 40.4408 25.4832 41.0566 25.6265C41.6797 25.7625 42.2598 25.9487 42.7969 26.1851L42.1953 27.6138C41.7083 27.4061 41.1891 27.2306 40.6377 27.0874C40.0863 26.9442 39.5241 26.8726 38.9512 26.8726C38.1276 26.8726 37.4938 27.0086 37.0498 27.2808C36.613 27.5529 36.3945 27.9253 36.3945 28.3979C36.3945 28.7632 36.4948 29.064 36.6953 29.3003C36.903 29.5366 37.2324 29.7586 37.6836 29.9663C38.1348 30.174 38.7292 30.4175 39.4668 30.6968C40.2044 30.9689 40.8418 31.2518 41.3789 31.5454C41.916 31.8319 42.3278 32.1828 42.6143 32.5981C42.9079 33.0063 43.0547 33.5327 43.0547 34.1772ZM49.9756 36.1538C50.2692 36.1538 50.57 36.1287 50.8779 36.0786C51.1859 36.0285 51.4365 35.9676 51.6299 35.896V37.2817C51.4222 37.3748 51.1322 37.4536 50.7598 37.5181C50.3945 37.5825 50.0365 37.6147 49.6855 37.6147C49.0625 37.6147 48.4967 37.5073 47.9883 37.2925C47.4798 37.0705 47.0716 36.6981 46.7637 36.1753C46.4629 35.6525 46.3125 34.9292 46.3125 34.0054V27.0229H44.6367V26.1528L46.3232 25.4546L47.0322 22.8979H48.1064V25.6265H51.5547V27.0229H48.1064V33.9517C48.1064 34.6893 48.2747 35.2407 48.6113 35.606C48.9551 35.9712 49.4098 36.1538 49.9756 36.1538ZM60.498 37.3999V21.6948H62.3242V37.3999H60.498ZM70.4268 36.1538C70.7204 36.1538 71.0212 36.1287 71.3291 36.0786C71.637 36.0285 71.8877 35.9676 72.0811 35.896V37.2817C71.8734 37.3748 71.5833 37.4536 71.2109 37.5181C70.8457 37.5825 70.4876 37.6147 70.1367 37.6147C69.5137 37.6147 68.9479 37.5073 68.4395 37.2925C67.931 37.0705 67.5228 36.6981 67.2148 36.1753C66.9141 35.6525 66.7637 34.9292 66.7637 34.0054V27.0229H65.0879V26.1528L66.7744 25.4546L67.4834 22.8979H68.5576V25.6265H72.0059V27.0229H68.5576V33.9517C68.5576 34.6893 68.7259 35.2407 69.0625 35.606C69.4062 35.9712 69.861 36.1538 70.4268 36.1538ZM79.249 25.4116C80.2516 25.4116 81.111 25.6336 81.8271 26.0776C82.5433 26.5216 83.0911 27.1447 83.4707 27.9468C83.8503 28.7417 84.04 29.6727 84.04 30.7397V31.8462H75.9082C75.9297 33.2284 76.2734 34.2811 76.9395 35.0044C77.6055 35.7277 78.5436 36.0894 79.7539 36.0894C80.4987 36.0894 81.1576 36.0213 81.7305 35.8853C82.3034 35.7492 82.8978 35.5487 83.5137 35.2837V36.8521C82.9193 37.117 82.3285 37.3104 81.7412 37.4321C81.1611 37.5539 80.4736 37.6147 79.6787 37.6147C78.5472 37.6147 77.5589 37.3856 76.7139 36.9272C75.876 36.4618 75.2243 35.7814 74.7588 34.8862C74.2933 33.991 74.0605 32.8953 74.0605 31.5991C74.0605 30.3315 74.2718 29.2358 74.6943 28.312C75.124 27.381 75.7256 26.6649 76.499 26.1636C77.2796 25.6623 78.1963 25.4116 79.249 25.4116ZM79.2275 26.8726C78.2751 26.8726 77.516 27.1841 76.9502 27.8071C76.3844 28.4302 76.0479 29.3003 75.9404 30.4175H82.1709C82.1637 29.7157 82.0527 29.0998 81.8379 28.5698C81.6302 28.0327 81.3115 27.6174 80.8818 27.3237C80.4521 27.0229 79.9007 26.8726 79.2275 26.8726ZM100.103 25.4116C101.399 25.4116 102.376 25.7518 103.035 26.4321C103.694 27.1053 104.023 28.1903 104.023 29.687V37.3999H102.262V29.7729C102.262 28.8205 102.054 28.1079 101.639 27.6353C101.23 27.1554 100.622 26.9155 99.8125 26.9155C98.6738 26.9155 97.8467 27.245 97.3311 27.9038C96.8154 28.5627 96.5576 29.533 96.5576 30.8149V37.3999H94.7852V29.7729C94.7852 29.1356 94.6921 28.6056 94.5059 28.1831C94.3268 27.7606 94.0547 27.4455 93.6895 27.2378C93.3314 27.0229 92.8766 26.9155 92.3252 26.9155C91.5446 26.9155 90.918 27.0767 90.4453 27.3989C89.9727 27.7212 89.6289 28.201 89.4141 28.8384C89.2064 29.4686 89.1025 30.2456 89.1025 31.1694V37.3999H87.3193V25.6265H88.7588L89.0273 27.2915H89.124C89.3604 26.8833 89.6576 26.5396 90.0156 26.2603C90.3737 25.981 90.7747 25.7697 91.2188 25.6265C91.6628 25.4832 92.1354 25.4116 92.6367 25.4116C93.5319 25.4116 94.2803 25.5799 94.8818 25.9165C95.4906 26.2459 95.931 26.7508 96.2031 27.4312H96.2998C96.6865 26.7508 97.2165 26.2459 97.8896 25.9165C98.5628 25.5799 99.3005 25.4116 100.103 25.4116Z" fill="#fff"/><rect x="1" y="1.4" width="508" height="54" stroke="#019AEB" stroke-width="2"/></svg>
